X:6
T:Scottis fr Sk\aa{}ne
R:Schottische
O:Sweden
M:4/4
A:Sk\aa{}ne
Z:Richard Robinson <richard:beulah.demon.co.uk>
%%RR_OriginalCollection: <URL:http://www.leeds.ac.uk/music/Info/RRTuneBk/>
%%ID:00/00/07/c2
K:D
D2DF  D2DF | E>DCE D4 |1\
C>DEF GECE | DEFG AGFE :|2 \
CDEF GABc | d2{e}dc d4:\
|: d>fed dcc2 | B>dcB BAAG | F>AFD E>GEC |1 \
D2d2 A4 :|2 D2{E}DC D4 :|

